svg/user/user_5_fill.svg

<?xml version="1.0" encoding="UTF-8"?>
<svg width="24px" height="24px" viewBox="0 0 24 24" version="1.1" xmlns="http://www.w3.org/2000/svg" xmlns:xlink="http://www.w3.org/1999/xlink">
    <title>user_5_fill</title>
    <g id="页面-1" stroke="none" stroke-width="1" fill="none" fill-rule="evenodd">
        <g id="User" transform="translate(-288.000000, -48.000000)" fill-rule="nonzero">
            <g id="user_5_fill" transform="translate(288.000000, 48.000000)">
                 <path d="M24,0 L24,24 L0,24 L0,0 L24,0 Z M12.5934901,23.257841 L12.5819402,23.2595131 L12.5108777,23.2950439 L12.4918791,23.2987469 L12.4918791,23.2987469 L12.4767152,23.2950439 L12.4056548,23.2595131 C12.3958229,23.2563662 12.3870493,23.2590235 12.3821421,23.2649074 L12.3780323,23.275831 L12.360941,23.7031097 L12.3658947,23.7234994 L12.3769048,23.7357139 L12.4804777,23.8096931 L12.4953491,23.8136134 L12.4953491,23.8136134 L12.5071152,23.8096931 L12.6106902,23.7357139 L12.6232938,23.7196733 L12.6232938,23.7196733 L12.6266527,23.7031097 L12.609561,23.275831 C12.6075724,23.2657013 12.6010112,23.2592993 12.5934901,23.257841 L12.5934901,23.257841 Z M12.8583906,23.1452862 L12.8445485,23.1473072 L12.6598443,23.2396597 L12.6498822,23.2499052 L12.6498822,23.2499052 L12.6471943,23.2611114 L12.6650943,23.6906389 L12.6699349,23.7034178 L12.6699349,23.7034178 L12.678386,23.7104931 L12.8793402,23.8032389 C12.8914285,23.8068999 12.9022333,23.8029875 12.9078286,23.7952264 L12.9118235,23.7811639 L12.8776777,23.1665331 C12.8752882,23.1545897 12.8674102,23.1470016 12.8583906,23.1452862 L12.8583906,23.1452862 Z M12.1430473,23.1473072 C12.1332178,23.1423925 12.1221763,23.1452606 12.1156365,23.1525954 L12.1099173,23.1665331 L12.0757714,23.7811639 C12.0751323,23.7926639 12.0828099,23.8018602 12.0926481,23.8045676 L12.108256,23.8032389 L12.3092106,23.7104931 L12.3186497,23.7024347 L12.3186497,23.7024347 L12.3225043,23.6906389 L12.340401,23.2611114 L12.337245,23.2485176 L12.337245,23.2485176 L12.3277531,23.2396597 L12.1430473,23.1473072 Z" id="MingCute" fill-rule="nonzero"></path>
                <path d="M9.58579,15 C10.0572656,15 10.5115875,15.166479 10.870172,15.4669191 L11,15.5858 L12,16.5858 L13,15.5858 C13.3334222,15.2523778 13.7724049,15.0488519 14.2383572,15.0077402 L14.4142,15 L18.4384,15 C19.7552435,15 20.9103267,15.8572015 21.3004933,17.1005091 L21.3489,17.2724 L21.8148,19.1362 C22.0407409,20.0398682 21.3986225,20.9165661 20.4910013,20.9943988 L20.3596,21 L3.64039,21 C2.70888727,21 2.01412136,20.1643779 2.15873567,19.2650286 L2.18517,19.1362 L2.65112,17.2724 C2.97048348,15.9949652 4.08224371,15.0822231 5.38305194,15.005269 L5.56155,15 L9.58579,15 Z M12,2 C12.7843,2 13.6611,2.19065 14.3802,2.39097 C15.976104,2.8355844 16.92228,4.28682562 16.9954206,5.8064842 L17,5.99673 L17,10.0033 C17,11.5905 16.0426,13.1459 14.3802,13.609 C13.6611,13.8093 12.7843,14 12,14 C11.2158,14 10.3389,13.8093 9.61982,13.609 C8.0238584,13.164424 7.07771696,11.7131843 7.00457918,10.1935435 L7,10.0033 L7,5.99673 C7,4.40951 7.95736,2.85411 9.61982,2.39097 C10.3389,2.19065 11.2157,2 12,2 Z" id="形状" fill="#09244B"></path>
            </g>
        </g>
    </g>
</svg>

<svg xmlns="http://www.w3.org/2000/svg" width="24" height="24"><g fill="none" fill-rule="nonzero"><path d="M24 0v24H0V0h24ZM12.593 23.258l-.011.002-.071.035-.02.004-.014-.004-.071-.035c-.01-.004-.019-.001-.024.005l-.004.01-.017.428.005.02.01.013.104.074.015.004.012-.004.104-.074.012-.016.004-.017-.017-.427c-.002-.01-.009-.017-.017-.018Zm.265-.113-.013.002-.185.093-.01.01-.003.011.018.43.005.012.008.007.201.093c.012.004.023 0 .029-.008l.004-.014-.034-.614c-.003-.012-.01-.02-.02-.022Zm-.715.002a.023.023 0 0 0-.027.006l-.006.014-.034.614c0 .012.007.02.017.024l.015-.002.201-.093.01-.008.004-.011.017-.43-.003-.012-.01-.01-.184-.092Z"/><path fill="#09244B" d="M9.586 15a2 2 0 0 1 1.284.467l.13.119 1 1 1-1a2 2 0 0 1 1.238-.578l.176-.008h4.024a3 3 0 0 1 2.862 2.1l.049.172.466 1.864a1.5 1.5 0 0 1-1.324 1.858L20.36 21H3.64a1.5 1.5 0 0 1-1.481-1.735l.026-.129.466-1.864a3 3 0 0 1 2.732-2.267L5.562 15h4.024ZM12 2c.784 0 1.661.19 2.38.391 1.596.445 2.542 1.896 2.615 3.415l.005.19v4.007c0 1.588-.957 3.143-2.62 3.606-.719.2-1.596.391-2.38.391-.784 0-1.661-.19-2.38-.391-1.596-.445-2.542-1.896-2.615-3.415L7 10.004V5.996c0-1.587.957-3.143 2.62-3.606C10.339 2.191 11.216 2 12 2Z"/></g></svg>
